X:2808
T:Idbury Hill
O:england
R:Morris
M:4/4
K:EDor
B2Bc d2B2|AGFE D2DE|F2B2 BAGF|E4 E4::\
B2Bc d2B2|edcB A2A2|
B2Bc d2B2|e3d B4|\
B2Bc d2B2|AGFE D2DE|F2B2 BAGF|E4 E4:|


